www/assets/icons/event_available.svg

<svg xmlns="http://www.w3.org/2000/svg" width="24" height="24" viewBox="0 0 24 24" fill='currentColor'><path d="M16.53 12.06 15.47 11l-4.88 4.88-2.12-2.12-1.06 1.06L10.59 18zM19 4h-1V2h-2v2H8V2H6v2H5c-1.11 0-1.99.9-1.99 2L3 20a2 2 0 0 0 2 2h14c1.1 0 2-.9 2-2V6c0-1.1-.9-2-2-2m0 16H5V9h14z"/></svg>

<svg width="24" height="24" viewBox="0 0 24 24" xmlns="http://www.w3.org/2000/svg" fill='currentColor'><path d="M16.53 12.06L15.47 11L10.59 15.88L8.47 13.76L7.41 14.82L10.59 18L16.53 12.06ZM19 4H18V2H16V4H8V2H6V4H5C3.89 4 3.01 4.9 3.01 6L3 20C3 21.1 3.89 22 5 22H19C20.1 22 21 21.1 21 20V6C21 4.9 20.1 4 19 4ZM19 20H5V9H19V20Z"/></svg>
